X: 2259
T: Babes In The Wood
R: polka
M: 2/4
K: Dmajor
F/G/|A2 FA|de f2|ga/g/ fe|df AF/G/|
AB/A/ FA|de fd/f/|ga/g/ fe|d2 dc/B/|
A2 FA|de f2|g2 f>e|df A2|
AB/A/ F/G/A|de f>d|g/a/g/f/ e/d/c|d2||
cd|e2 f/e/d|ce a2|ef/e/ ef|ge cA|
e>e f/e/d/B/|ce a>f|ga/g/ fe|d2- dc/d/|
ef/e/ g/f/e/d/|ce a2|ef/e/ ef|g/f/e/d/ c/B/A/c/|
ef/e/ f>d/|ce a>f|ga/g/ fe|d3||

